svg/furkot/freepik/treasure.svg

<svg viewBox="0 0 512 512" xmlns="http://www.w3.org/2000/svg"><path d="m279.868 273.909v29.249c45.012 6.831 78.51 32.474 78.51 63.14 0 35.916-45.851 65.002-102.389 65.002-56.527 0-102.378-29.097-102.378-65.002 0-30.633 33.498-56.309 78.499-63.14v-29.249h-232.11v198.711h512v-198.711zm-47.758-35.84v-53.825h-37.604v-33.008h22.016v-13.661h-44.011v-32.996h59.61c0-13.203 10.687-23.846 23.879-23.846 13.203 0 23.89 10.654 23.89 23.846 0 1.111-.185 2.146-.338 3.17h.338v130.342h232.11v-7.593-92.65c0-54.141-44.293-98.468-98.457-98.468h-315.086c-54.164 0-98.457 44.327-98.457 98.457v92.65 7.593z"/><path d="m205.116 354.565-.011 6.961.011.556c1.514 22.779 13.867 34.587 24.728 35.905 13.389 1.569 20.415-4.019 26.156-11.438 5.741 7.419 12.822 12.985 26.166 11.438 10.829-1.318 23.193-13.126 24.696-35.905l.033-7.037-.033-.458c-1.525-23.933-100.21-23.933-101.746-.022z"/></svg>

<svg xmlns="http://www.w3.org/2000/svg" viewBox="0 0 512 512"><path d="M279.868 273.909V303.158C324.88 309.989 358.378 335.632 358.378 366.298 358.378 402.214 312.527 431.3 255.989 431.3 199.462 431.3 153.611 402.203 153.611 366.298 153.611 335.665 187.109 309.989 232.11 303.158V273.909H0V472.62H512V273.909H279.868ZM232.11 238.069V184.244H194.506V151.236H216.522V137.575H172.511V104.579H232.121C232.121 91.376 242.808 80.733 256 80.733 269.203 80.733 279.89 91.387 279.89 104.579 279.89 105.69 279.705 106.725 279.552 107.749H279.89V238.091H512V230.498 137.848C512 83.707 467.707 39.38 413.543 39.38H98.457C44.293 39.38 0 83.707 0 137.837V230.487 238.08L232.11 238.069 232.11 238.069Z"/><path d="M205.116 354.565L205.105 361.526 205.116 362.082C206.63 384.861 218.983 396.669 229.844 397.987 243.233 399.556 250.259 393.968 256 386.549 261.741 393.968 268.822 399.534 282.166 397.987 292.995 396.669 305.359 384.861 306.862 362.082L306.895 355.045 306.862 354.587C305.337 330.654 206.652 330.654 205.116 354.565Z"/></svg>
